**kern	**kern
*part1	*part1
*staff2	*staff1
*I"Piano	*
*clefF4	*clefG2
*k[b-e-a-]	*k[b-e-a-]
=1	=1
4E- 4B-	4e- 4g
8E-L 8B-	8e-L 8g
8E-J 8B-	8e-J 8g
=	=
4E- 4B-	4e- 4g
8E-L 8A-	8e-L 8a-
8E-J 8G	8e-J 8b-
=	=
4D 4A- 4B-	4f 4b-
8DL 8A- 8B-	8fL 8b-
8DJ 8A- 8B-	8fJ 8b-
=	=
4D 4A- 4B-	4f 4b-
8DL 8A- 8B-	8fL 8b-
8DJ 8A- 8B-	8fJ 8b-
=	=
*^	*
(8A-L	4D	4f 4bn
8G)	.	.
8G	8DL	8fL 8b
8GJ	8DJ	8fJ 8b
=	=	=
*	*	*^
4G	8DL	8bnL	4f
.	8BBn	8dd	.
8GL	8C	8cc	8fL
8GJ	8DJ	8bJ	8fJ
*v	*v	*	*
=	=	=
4C 4G	4b-X 4cc	(8fL
.	.	8en)
8CL 8G	8b-L 8cc	8e
8CJ 8G	8b-J 8cc	8eJ
*	*v	*v
=	=
!	!LO:TX:b:i:t=cresc.
4C 4G	4en 4b- 4cc
8CL 8An	8eL 8an 8cc
8CJ 8B-	8eJ 8g 8cc
=	=
*-	*-
!!!system-decoration: {(s1,s2)}
